**kern	**kern	**dynam
*part1	*part1	*part1
*staff2	*staff1	*
*I"Piano	*	*
*clefF4	*clefG2	*
*k[]	*k[]	*
=1	=1	=1
4GGG 4GG	2c 2e 2cc	.
2E 2G	.	.
.	[4c 4e	.
=	=	=
*	*^	*
4GGG 4GG	2d	4c]	.
2D 2G	.	4B	.
.	4f	4d	.
*	*v	*v	*
=	=	=
4CC	2c 2e	.
2C 2E 2G	.	.
.	(4c 4e 4cc	.
=	=	=
4FFF 4FF	2c 2g 2b 2cc	.
2C 2F	.	.
.	4c 4f 4a 4cc	.
=	=	=
4CC 4C	[2.c) [2.e [2.g [2.cc	.
!	!	!LO:DY:a
2E 2G	.	>
=	=	=
4EEE 4EE	2c] 2e] 2g] 2cc]	.
2GG 2C	.	]]
.	4G 4c 4e	.
=	=	=
4GGG	2.G 2.c [2.e	.
2GG 2E	.	.
=	=	=
*	*^	*
4GGG	2e]	2.G 2.B	.
2GG 2F	.	.	.
.	4d	.	.
*	*v	*v	*
=	=	=
*^	*	*
2E 2G	2CCC; 2CC	2c;	.
*v	*v	*	*
==	==	==
*-	*-	*-
!!!system-decoration: {(s1,s2)}
